X: 42
T: Tobin's Favourite
M: 6/8
L: 1/8
R: jig
K:Dmaj
A|"D"DFA dcd|"A"ecA cde|"D"fef "G"gfg|"A"ecA "A7"GFE|
"D"DFA dcd|"A"ecA cde|"D"faf "A7"gec|"A"edc "D"d2:||
A|"D"dfa agf|"A"efg efg|"D"fef "G"gfg|"A"ecA "A7"GFE|
"D"DFA dcd|"A"ecA cde|"D"faf "A7"gec|"A"edc "D"d2:||


